X:35
T:Rakish Paddy
R:reel
N:"collected from Delaney"
B:"O'Neill's Dance Music of Ireland, 1533"
Z:Most of the c's are usually played as c naturals these days.
T: paidin an racaire.
Z:transcribed by John B. Walsh, walsh@math.ubc.ca 8/23/96
M:C|
L:1/8
N: http://jc.tzo.net/~jc/music/book/oneills/1850/
<end>
<start>
X/1533_jw.abc	
N;  2006-10-14 14:53:44 UT
K:D
T(cBc).d cBAB|cAGF EFGc|Ad{e}dc defe|dcAG FGAB|
cedB cBAB|cAGF EDCE|DEFG ABce|dcAG FD D2||
eg"~"g2 agfg|efgf ec "~"c2|ea "#~"a2 b^gag|eaag ((3efg) dg|
eg "~"g2 agfg|efge defg|afge fdec|dcAG FD D2||
<end>
<start>
